X:869
T:Miss Linda MacFarlane
C:Robin Brock
S:Learned from Auld Spice Ceilidh Band
Z:Nigel Gatherer
M:4/4
L:1/8
K:G
D2 | G2 F>G DGBd | d2 c>A G2 F>G | E2 e>d cBAG | B2 A2 A2
D2 | G2 F>G DGBd | d2 c>A G2 F>G | E2 e>d cFBA | G2 G>A G2 ||
B>c | d2 B>c dBgd | e2 c>d ecge | d2 D>G Bdgd | B2 A2 A2
D2 | G2 F>G DGBd | d2 c>A G2 F>G | E2 e>d cFBA | G2 G>A G2 |]
<end>
<start>
